X:78
T:Adagio in G minor (arr. Giazotto)
C:Albinoni, T.
M:4/4
L:1/8
Q:1/4=46
K:Gmin
|:D2|g4 fg a2|b4 a2 g2|f4 ef g2|a4 g2 f2|
e4 de f2|g4 f2 e2|d4 ef g2|d4 D2:|

